X: 23
T: Boy's Lament for His Dragon
T: March, D
C: William MacKay
M: C
L: 1/8
K: D
A2|A2 d2 d2 ef|g>f e<d f4|g2 B2 B2 cd|e>f e<c A4|A2 d2 d2 ef|g>f e<d e4|g2 B2 f>e d<c|d4 d2:|
|: fg |a2 A2 A2 =c2|B2 G2 A4|A2 d2 A2 d2|e>d ce d<c|d4 d2:|
N: Also known as The 72nd Highlander's Farewell
D: Brenda Stubbert, Some Tasty Tunes, STU-0799, 1999
